assets/images/icons/contact-location.svg

<svg width="40" height="41" viewBox="0 0 40 41" fill="none" xmlns="http://www.w3.org/2000/svg">
<g clip-path="url(#clip0_228_4053)">
<path opacity="0.1" d="M0.278944 29.4522C-0.0736318 26.4401 -0.122607 23.4843 0.310078 20.8101C0.84212 17.5218 2.23117 13.8636 3.74867 10.592C6.71454 4.19799 12.0239 1.96106 18.489 0.952582C27.5008 -0.453153 39.9215 0.952613 40 11.8589C39.5479 15.7591 36.5646 26.6018 26.4939 27.4292C23.1642 27.7028 21.9185 31.0473 20.4515 34.8758C16.5911 44.9503 1.56969 40.4794 0.278944 29.4522Z" fill="#7FB51F"/>
<path d="M27.1475 9.81115C25.8507 8.74935 24.3344 7.98859 22.7081 7.58372C21.0817 7.17885 19.3857 7.13998 17.7425 7.4699C15.6296 7.90308 13.6858 8.93447 12.1426 10.4412C10.5994 11.948 9.52189 13.8665 9.03834 15.9684C8.55479 18.0703 8.68563 20.2669 9.41526 22.2965C10.1449 24.3261 11.4426 26.1032 13.1537 27.4162C15.1074 28.8461 16.7708 30.635 18.055 32.6874L18.93 34.1424C19.0411 34.3272 19.1982 34.4801 19.3859 34.5863C19.5736 34.6925 19.7856 34.7483 20.0012 34.7483C20.2169 34.7483 20.4289 34.6925 20.6166 34.5863C20.8043 34.4801 20.9613 34.3272 21.0725 34.1424L21.9112 32.7449C23.0295 30.7791 24.5543 29.0745 26.3837 27.7449C27.8182 26.7579 29.0038 25.4511 29.8468 23.9276C30.6898 22.404 31.1672 20.7054 31.2414 18.9657C31.3156 17.2261 30.9845 15.493 30.2742 13.9032C29.564 12.3134 28.494 10.9104 27.1487 9.8049L27.1475 9.81115ZM20 23.4999C19.0111 23.4999 18.0444 23.2067 17.2221 22.6573C16.3999 22.1078 15.759 21.327 15.3806 20.4133C15.0021 19.4997 14.9031 18.4944 15.0961 17.5245C15.289 16.5545 15.7652 15.6636 16.4644 14.9644C17.1637 14.2651 18.0546 13.7889 19.0245 13.596C19.9944 13.403 20.9998 13.5021 21.9134 13.8805C22.827 14.2589 23.6079 14.8998 24.1573 15.7221C24.7067 16.5443 25 17.511 25 18.4999C25 19.826 24.4732 21.0978 23.5355 22.0354C22.5978 22.9731 21.3261 23.4999 20 23.4999Z" fill="#7FB51F"/>
</g>
<defs>
<clipPath id="clip0_228_4053">
<rect width="40" height="40" fill="white" transform="translate(0 0.5)"/>
</clipPath>
</defs>
</svg>

<svg xmlns="http://www.w3.org/2000/svg" width="40" height="41" fill="none"><g fill="#7FB51F" clip-path="url(#a)"><path d="M.279 29.452c-.353-3.012-.402-5.968.031-8.642.532-3.288 1.921-6.946 3.439-10.218 2.966-6.394 8.275-8.63 14.74-9.64C27.501-.452 39.922.953 40 11.86c-.452 3.9-3.435 14.743-13.506 15.57-3.33.274-4.575 3.618-6.042 7.447C16.592 44.95 1.57 40.479.279 29.452" opacity=".1"/><path d="M27.148 9.811a11.33 11.33 0 0 0-9.405-2.341 11.25 11.25 0 0 0-4.59 19.946 19.1 19.1 0 0 1 4.902 5.271l.875 1.455a1.25 1.25 0 0 0 2.143 0l.838-1.397a15.9 15.9 0 0 1 4.473-5 11.238 11.238 0 0 0 .765-17.94zM20 23.5a5 5 0 1 1 0-10 5 5 0 0 1 0 10"/></g><defs><clipPath id="a"><path fill="#fff" d="M0 .5h40v40H0z"/></clipPath></defs></svg>
